modules/feathericon/icons/pencil.svg

<?xml version="1.0" encoding="UTF-8"?>
<svg width="12px" height="12px" viewBox="0 0 12 12" version="1.1" xmlns="http://www.w3.org/2000/svg" xmlns:xlink="http://www.w3.org/1999/xlink">
    <!-- Generator: sketchtool 48.1 (47250) - http://www.bohemiancoding.com/sketch -->
    <title>pencil</title>
    <desc>Created with sketchtool.</desc>
    <defs></defs>
    <g id="web-app" stroke="none" stroke-width="1" fill="none" fill-rule="evenodd">
        <g id="pencil" fill="#000000">
            <path d="M0,12 L2,12 L10,4 L8,2 L0.00871243404,9.97864112 L0,12 Z M1,10 L2.00276043,9 L3,10 L2,11 L1,10 Z M9,1 L10,0 L12,2 L11.0036865,2.99785952 L9,1 Z" id="Shape"></path>
        </g>
    </g>
</svg>

<svg width="12" height="12" viewBox="0 0 12 12" xmlns="http://www.w3.org/2000/svg"><path d="M0 12h2l8-8-2-2L.009 9.979 0 12zm1-2l1.003-1L3 10l-1 1-1-1zm8-9l1-1 2 2-.996.998L9 1z" fill="#000" fill-rule="evenodd"/></svg>
